X:118
T: Seele und Leib (2-20) S. 65
N: P0893
O: Lothringen
S: PINCK, Louis: Verklingende Weisen, Bd 2, Metz 1928]
R: geistliche, religiöse Lieder, Tod]
M: 3/4
L: 1/8
K: F
A2 | A2A2c2 | B4GA | B2AGFA | G4z2
F2E2G2 | c3dcB | A4G2 | F4z2
A2A2AA | c2B2G2 | B2AGFA | G4z2
F2E2G2 | c3dcB | A4G2 | F4

